X:39
T:Polska ur Petter Dufvas notbok (Ma6-39)
R:Polska
O:Verkelbäck, Småland
B:Petter Dufvas notbok
S:Petter Dufva
N:Smus Ma6 bild 41
N:Variant av Skräddarpolskan.
M:3/4
L:1/8
K:D
DDDDDD|[DF][DF][DF][DF][DF][DF]|AA Bcdf|ed/c/ d2D2:| |:[df][df] [eA][eA][eA][eA]|
[df][df] [ce][ce][ce][ce]|[df][df][Bg][Bg][df][df]|ec d2D2:|

